src/assets/img/tools/jfrog.svg

<svg width="68" height="66" fill="none" xmlns="http://www.w3.org/2000/svg">
  <path fill-rule="evenodd" clip-rule="evenodd" d="m65.0396 45.1702-1.637-2.6159c-.9071.8615-2.0174 1.3537-3.1 1.3537-.4971 0-.7593-.0609-1.8419-.3378-1.0814-.3087-1.8425-.401-2.6896-.401-3.8313 0-6.3163 2.0933-6.3163 5.3252 0 2.3386 1.053 3.7856 3.217 4.3703-.8774.2157-1.8427.6775-2.2811 1.2012-.3217.3692-.4675.8607-.4675 1.4452 0 .4938.1171.9242.2919 1.2934.2043.3386.4969.6157.8483.7691.7008.2771 1.8417.4616 3.596.493.907 0 1.4625.0308 1.6672.0308 1.0822.0617 1.6372.2454 2.0471.4615.4089.2465.7014.8006.7014 1.4155 0 .6159-.3801 1.2314-.9355 1.601-.5262.3692-1.3747.5235-2.4857.5235-1.8133 0-2.8073-.6775-2.8073-1.9398 0-.5541.0585-.6775.1754-1.0157h-3.6257c-.146.3073-.3502.7384-.3502 1.6008 0 1.0776.4087 2.0005 1.2275 2.8009 1.3456 1.3238 3.5385 1.6925 5.6729 1.6925 2.3387 0 4.591-.5534 5.9062-2.0317.8182-.9233 1.1985-1.9388 1.1985-3.2619 0-1.4158-.4088-2.4933-1.2859-3.3548-1.0537-1.0165-2.2514-1.3859-4.5321-1.4163l-2.1061-.0304c-.4089 0-.6423-.1533-.6423-.3692 0-.4313.5545-.8008 1.5489-1.2927.2929.0304.4097.0304.5845.0304 3.1873 0 5.5269-1.9696 5.5269-4.6779 0-1.0469-.2924-1.8465-.8779-2.5851.4981.0609.6438.0921 1.0241.0921 1.0814 0 1.9-.3388 2.7483-1.1699Zm2.4113-15.2758c0-1.77-1.0913-3.4098-2.9471-4.7569.1674.5409.2614 1.0907.2614 1.6514 0 5.0684-7.0768 9.4049-17.1095 11.2005 1.1348.1279 2.3119.1979 3.5224.1979 8.9875 0 16.2728-3.7131 16.2728-8.2929Zm-5.7833-2.7569c0 4.8641-10.8796 8.8067-24.3006 8.8067-13.4203 0-24.2992-3.9426-24.2992-8.8067 0-1.532 1.0795-2.972 2.9776-4.2261-.2934.5378-.449 1.0942-.449 1.6644 0 4.4932 9.5689 8.1356 21.3735 8.1356 11.8049 0 21.3747-3.6424 21.3747-8.1356 0-.8496-.3448-1.67-.9804-2.441 2.7107 1.4214 4.3034 3.1445 4.3034 5.0027Zm-45.915-7.7857c-4.9019 1.1977-8.23161 3.5433-8.23161 6.2407 0 1.6698 1.27715 3.203 3.40981 4.4143-.6405-1.025-.98922-2.1034-.98922-3.2179 0-2.8056 2.17292-5.3859 5.81102-7.4371Zm47.9352-7.9082c-.4508-.5426-1.0684-.5409-1.5556-.0996-.4706.6237-.484 1.0675-.15 1.4121.3562.3684 1.0948.6858 1.6266.2637.532-.4238.53-1.0337.079-1.5762Zm-6.1746 2.0222c1.5212-2.1214 4.4313 1.6299 1.1326 2.152-1.32.2091-3.5489 1.653-4.5054 3.9321-1.3506 3.3728-.7661 5.8691-3.088 7.3706-4.9516 3.1993-20.2063 4.4065-26.7749.3023-5.149-3.217-3.3823-8.3173-18.11043-19.55761-1.92605-1.46904.35504-3.02875 1.7977-2.03046 1.44249.99942.12212 1.26476 3.03173 4.17646 5.8769 5.87891 5.8178.59361 6.7459 2.59271 1.9516 4.204 6.2568 8.4379 6.2568 8.4379 4.3116 2.8065 7.7547 3.4199 14.1146-.8834 4.0333-2.7289 2.3834 4.3403 12.2748-.7545 3.6073-1.8586 3.4573-.6263 7.1247-5.7381h-.0001ZM14.5958 8.07278c-.2492-.3508-.9901-.51225-1.4857-.01357-.4948.49865-.2514.99168.0347 1.28801.4105.42443 1.1062.38955 1.52.15893.4157-.23004.3283-.87387-.069-1.43337ZM4.3705 4.17071c.32305-.35466.73102-1.02563.03023-2.30995C3.88928.920602 2.19795.536494 1.60102.895016c-.595.359724-1.322923 1.747944-.32618 2.358814 1.28435.78819 2.12623 1.97933 3.09566.91688Zm60.9786-1.74425c-.4523-.65716-1.407-.53818-2.352.14769-.9456.68509-.7667 1.98766-.4541 2.29095.5483.53335 2.0098.17328 2.3503-.20872.8771-.98104.9078-1.57291.4558-2.22992Zm-5.4408 4.17167c1.3535-.63822 3.482 1.43626.4015 2.99349-4.4026 2.22678-4.8693 4.98948-7.6508 6.74618-4.6777 2.9545-3.2464.1193-10.7711-.9537-2.8978-.4134-3.83 2.8194-6.0922 1.8851-5.2153-2.1542-8.8579-1.7417-12.2359 1.0058-1.2227-.5393-2.5022-2.6216-3.0036-3.4565 1.3695-1.3413.8165-3.583.0431-4.8123-.7724-1.22932-1.7082-.88048-2.7354-2.01152-1.0281-1.12949.3874-4.07766 1.7039-1.81286 4.9324 8.48628 8.1706 4.95638 12.1996 4.45018 3.8666-.4855 7.2846 1.6206 8.3325-4.34494.1723-.97504 1.1221-1.20839 1.219.40408.0965 1.61361.702 5.54256 2.828 6.04966 2.1255.5064 3.8131-.4979 4.3108-1.0553.4979-.5574.7586-.4764.977.9068.2193 1.3843.7583 3.296 3.7431 1.1665 6.1046-4.35593 4.3579-6.04127 6.7305-7.16067ZM41.7637 2.61176c.0197-.69714-.2969-1.13414-.9845-1.10955-.6875.025-.934.37095-.9117 1.04384.1715 1.27368.3857 1.24324.8417 1.36088.456.11784 1.0347-.59865 1.0545-1.29517ZM17.2899 3.80889c.2994-.37753.3281-.87446-.0692-1.43454-.2489-.35043-1.4133-.59073-1.9075-.09225-.4957.49902-.0447 1.28277.3409 1.40157.7142.21999 1.0315.88551 1.6358.12522ZM58.1105 48.5248c0 1.4469-.8485 2.2466-2.3982 2.2466-1.3744 0-2.3101-.6456-2.3101-2.2466 0-1.4774.8483-2.3391 2.3396-2.3391 1.4913 0 2.3687.8617 2.3687 2.3391Zm-11.2286 8.8338c1.2878-1.5396 1.8713-3.3862 1.8713-6.0944 0-2.5547-.526-4.2777-1.7244-5.756-1.2871-1.6002-2.9531-2.3692-5.0884-2.3692-4.0346 0-6.7248 3.2923-6.7248 8.2488 0 4.9549 2.6605 8.1561 6.7248 8.1561 2.31 0 3.8013-.8308 4.9415-2.1853Zm-2.3972-6.1248c0 3.7245-.7305 5.324-2.4263 5.324-.761 0-1.6374-.4301-1.9888-1.2917-.3213-.8016-.4979-2.1559-.4979-3.9711 0-1.5698.1467-2.6776.4099-3.5088.3213-.9847 1.0815-1.6005 2.0173-1.6005.7016 0 1.3156.3078 1.696.8313.5264.7074.7898 2.0923.7898 4.2168ZM7.1938 62.0361l1.89929 2.2161c1.84271-.7386 4.15261-2.3997 4.73721-5.0157.2046-.8624.2918-1.4164.2918-4.1875V37.9243H9.9712v17.5868c0 2.309-.08761 3.1704-.4097 3.9396-.37987.8622-1.31652 1.9084-2.3677 2.5854Zm9.5922-24.1605h-.4264v21.3296h4.0933v-9.4498h5.1756V46.248h-5.1756v-4.8949h6.4615l.2508-1.8623c-3.8827-.2969-7.4113-.9218-10.3792-1.6152Zm13.6083 5.2015c.3512.6471.5549 1.3545.614 2.2474.556-.8006 1.4917-1.6317 2.2222-2.0018.3225-.1535.8481-.2456 1.2868-.2456.5845 0 .8475.0619 1.4615.3386l-1.0816 3.6317c-.3799-.2149-.7014-.3076-1.14-.3076-.8773 0-1.6669.4313-2.3981 1.3233v11.1421h-3.9178V48.6781c0-2.1237-.2341-3.724-.5556-4.6157l3.5086-.9853Z" fill="#40BE46"/>
</svg>

<svg width="68" height="66" viewBox="0 0 68 66" fill="none" xmlns="http://www.w3.org/2000/svg">
<path fill-rule="evenodd" clip-rule="evenodd" d="M65.0396 45.1702L63.4026 42.5543C62.4955 43.4158 61.3852 43.908 60.3026 43.908C59.8055 43.908 59.5433 43.8471 58.4607 43.5702C57.3793 43.2615 56.6182 43.1692 55.7711 43.1692C51.9398 43.1692 49.4548 45.2625 49.4548 48.4944C49.4548 50.833 50.5078 52.28 52.6718 52.8647C51.7944 53.0804 50.8291 53.5422 50.3907 54.0659C50.069 54.4351 49.9232 54.9266 49.9232 55.5111C49.9232 56.0049 50.0403 56.4353 50.2151 56.8045C50.4194 57.1431 50.712 57.4202 51.0634 57.5736C51.7642 57.8507 52.9051 58.0352 54.6594 58.0666C55.5664 58.0666 56.1219 58.0974 56.3266 58.0974C57.4088 58.1591 57.9638 58.3428 58.3737 58.5589C58.7826 58.8054 59.0751 59.3595 59.0751 59.9744C59.0751 60.5903 58.695 61.2058 58.1396 61.5754C57.6134 61.9446 56.7649 62.0989 55.6539 62.0989C53.8406 62.0989 52.8466 61.4214 52.8466 60.1591C52.8466 59.605 52.9051 59.4816 53.022 59.1434H49.3963C49.2503 59.4507 49.0461 59.8818 49.0461 60.7442C49.0461 61.8218 49.4548 62.7447 50.2736 63.5451C51.6192 64.8689 53.8121 65.2376 55.9465 65.2376C58.2852 65.2376 60.5375 64.6842 61.8527 63.2059C62.6709 62.2826 63.0512 61.2671 63.0512 59.944C63.0512 58.5282 62.6424 57.4507 61.7653 56.5892C60.7116 55.5727 59.5139 55.2033 57.2332 55.1729L55.1271 55.1425C54.7182 55.1425 54.4848 54.9892 54.4848 54.7733C54.4848 54.342 55.0393 53.9725 56.0337 53.4806C56.3266 53.511 56.4434 53.511 56.6182 53.511C59.8055 53.511 62.1451 51.5414 62.1451 48.8331C62.1451 47.7862 61.8527 46.9866 61.2672 46.248C61.7653 46.3089 61.911 46.3401 62.2913 46.3401C63.3727 46.3401 64.1913 46.0013 65.0396 45.1702ZM67.4509 29.8944C67.4509 28.1244 66.3596 26.4846 64.5038 25.1375C64.6712 25.6784 64.7652 26.2282 64.7652 26.7889C64.7652 31.8573 57.6884 36.1938 47.6557 37.9894C48.7905 38.1173 49.9676 38.1873 51.1781 38.1873C60.1656 38.1873 67.4509 34.4742 67.4509 29.8944ZM61.6676 27.1375C61.6676 32.0016 50.788 35.9442 37.367 35.9442C23.9467 35.9442 13.0678 32.0016 13.0678 27.1375C13.0678 25.6055 14.1473 24.1655 16.0454 22.9114C15.752 23.4492 15.5964 24.0056 15.5964 24.5758C15.5964 29.069 25.1653 32.7114 36.9699 32.7114C48.7748 32.7114 58.3446 29.069 58.3446 24.5758C58.3446 23.7262 57.9998 22.9058 57.3642 22.1348C60.0749 23.5562 61.6676 25.2793 61.6676 27.1375ZM15.7526 19.3518C10.8507 20.5495 7.52099 22.8951 7.52099 25.5925C7.52099 27.2623 8.79814 28.7955 10.9308 30.0068C10.2903 28.9818 9.94158 27.9034 9.94158 26.7889C9.94158 23.9833 12.1145 21.403 15.7526 19.3518ZM63.6878 11.4436C63.237 10.901 62.6194 10.9027 62.1322 11.344C61.6616 11.9677 61.6482 12.4115 61.9822 12.7561C62.3384 13.1245 63.077 13.4419 63.6088 13.0198C64.1408 12.596 64.1388 11.9861 63.6878 11.4436ZM57.5132 13.4658C59.0344 11.3444 61.9445 15.0957 58.6458 15.6178C57.3258 15.8269 55.0969 17.2708 54.1404 19.5499C52.7898 22.9227 53.3743 25.419 51.0524 26.9205C46.1008 30.1198 30.8461 31.327 24.2775 27.2228C19.1285 24.0058 20.8952 18.9055 6.16707 7.66519C4.24102 6.19615 6.52211 4.63644 7.96477 5.63473C9.40726 6.63415 8.08689 6.89949 10.9965 9.81119C16.8734 15.6901 16.8143 10.4048 17.7424 12.4039C19.694 16.6079 23.9992 20.8418 23.9992 20.8418C28.3108 23.6483 31.7539 24.2617 38.1138 19.9584C42.1471 17.2295 40.4972 24.2987 50.3886 19.2039C53.9959 17.3453 53.8459 18.5776 57.5133 13.4658H57.5132ZM14.5958 8.07278C14.3466 7.72198 13.6057 7.56053 13.1101 8.05921C12.6153 8.55786 12.8587 9.05089 13.1448 9.34722C13.5553 9.77165 14.251 9.73677 14.6648 9.50615C15.0805 9.27611 14.9931 8.63228 14.5958 8.07278ZM4.3705 4.17071C4.69355 3.81605 5.10152 3.14508 4.40073 1.86076C3.88928 0.920602 2.19795 0.536494 1.60102 0.895016C1.00602 1.25474 0.278097 2.64296 1.27484 3.25383C2.55919 4.04202 3.40107 5.23316 4.3705 4.17071ZM65.3491 2.42646C64.8968 1.7693 63.9421 1.88828 62.9971 2.57415C62.0515 3.25924 62.2304 4.56181 62.543 4.8651C63.0913 5.39845 64.5528 5.03838 64.8933 4.65638C65.7704 3.67534 65.8011 3.08347 65.3491 2.42646ZM59.9083 6.59813C61.2618 5.95991 63.3903 8.03439 60.3098 9.59162C55.9072 11.8184 55.4405 14.5811 52.659 16.3378C47.9813 19.2923 49.4126 16.4571 41.8879 15.3841C38.9901 14.9707 38.0579 18.2035 35.7957 17.2692C30.5804 15.115 26.9378 15.5275 23.5598 18.275C22.3371 17.7357 21.0576 15.6534 20.5562 14.8185C21.9257 13.4772 21.3727 11.2355 20.5993 10.0062C19.8269 8.77688 18.8911 9.12572 17.8639 7.99468C16.8358 6.86519 18.2513 3.91702 19.5678 6.18182C24.5002 14.6681 27.7384 11.1382 31.7674 10.632C35.634 10.1465 39.052 12.2526 40.0999 6.28706C40.2722 5.31202 41.222 5.07867 41.3189 6.69114C41.4154 8.30475 42.0209 12.2337 44.1469 12.7408C46.2724 13.2472 47.96 12.2429 48.4577 11.6855C48.9556 11.1281 49.2163 11.2091 49.4347 12.5923C49.654 13.9766 50.193 15.8883 53.1778 13.7588C59.2824 9.40287 57.5357 7.71753 59.9083 6.59813ZM41.7637 2.61176C41.7834 1.91462 41.4668 1.47762 40.7792 1.50221C40.0917 1.52721 39.8452 1.87316 39.8675 2.54605C40.039 3.81973 40.2532 3.78929 40.7092 3.90693C41.1652 4.02477 41.7439 3.30828 41.7637 2.61176ZM17.2899 3.80889C17.5893 3.43136 17.618 2.93443 17.2207 2.37435C16.9718 2.02392 15.8074 1.78362 15.3132 2.2821C14.8175 2.78112 15.2685 3.56487 15.6541 3.68367C16.3683 3.90366 16.6856 4.56918 17.2899 3.80889ZM58.1105 48.5248C58.1105 49.9717 57.262 50.7714 55.7123 50.7714C54.3379 50.7714 53.4022 50.1258 53.4022 48.5248C53.4022 47.0474 54.2505 46.1857 55.7418 46.1857C57.2331 46.1857 58.1105 47.0474 58.1105 48.5248ZM46.8819 57.3586C48.1697 55.819 48.7532 53.9724 48.7532 51.2642C48.7532 48.7095 48.2272 46.9865 47.0288 45.5082C45.7417 43.908 44.0757 43.139 41.9404 43.139C37.9058 43.139 35.2156 46.4313 35.2156 51.3878C35.2156 56.3427 37.8761 59.5439 41.9404 59.5439C44.2504 59.5439 45.7417 58.7131 46.8819 57.3586ZM44.4847 51.2338C44.4847 54.9583 43.7542 56.5578 42.0584 56.5578C41.2974 56.5578 40.421 56.1277 40.0696 55.2661C39.7483 54.4645 39.5717 53.1102 39.5717 51.295C39.5717 49.7252 39.7184 48.6174 39.9816 47.7862C40.3029 46.8015 41.0631 46.1857 41.9989 46.1857C42.7005 46.1857 43.3145 46.4935 43.6949 47.017C44.2213 47.7244 44.4847 49.1093 44.4847 51.2338ZM7.1938 62.0361L9.09309 64.2522C10.9358 63.5136 13.2457 61.8525 13.8303 59.2365C14.0349 58.3741 14.1221 57.8201 14.1221 55.049V37.9243H9.9712V55.5111C9.9712 57.8201 9.88359 58.6815 9.5615 59.4507C9.18163 60.3129 8.24498 61.3591 7.1938 62.0361ZM16.786 37.8756H16.3596V59.2052H20.4529V49.7554H25.6285V46.248H20.4529V41.3531H26.9144L27.1652 39.4908C23.2825 39.1939 19.7539 38.569 16.786 37.8756ZM30.3943 43.0771C30.7455 43.7242 30.9492 44.4316 31.0083 45.3245C31.5643 44.5239 32.5 43.6928 33.2305 43.3227C33.553 43.1692 34.0786 43.0771 34.5173 43.0771C35.1018 43.0771 35.3648 43.139 35.9788 43.4157L34.8972 47.0474C34.5173 46.8325 34.1958 46.7398 33.7572 46.7398C32.8799 46.7398 32.0903 47.1711 31.3591 48.0631V59.2052H27.4413V48.6781C27.4413 46.5544 27.2072 44.9541 26.8857 44.0624L30.3943 43.0771Z" fill="#40BE46"/>
</svg>
